icons/Color/24/gimp-floating-selection.svg

<svg height="24" viewBox="0 0 24 24" width="24" xmlns="http://www.w3.org/2000/svg"><path d="m0 .00001h24v24h-24z" fill="none"/><path d="m3 1-3 6h13l3-6zm.5 1h1l-.5 1h-1zm2 0h1l-.5 1h-1zm2 0h1l-.5 1h-1zm2 0h1l-.5 1h-1zm2 0h1l-.5 1h-1zm2 0h1l-.5 1h-1zm-10.75 1.5h1l-.5 1h-1zm10 0h1l-.5 1h-1zm-10.75 1.5h1l-.5 1h-1zm2 0h1l-.5 1h-1zm2 0h1l-.5 1h-1zm2 0h1l-.5 1h-1zm2 0h1l-.5 1h-1zm2 0h1l-.5 1h-1z" fill="#555753" transform="matrix(1.5 0 0 1.6666667 0 -.66663212126)"/><g transform="matrix(1.5 0 0 1.6666667 0 -1715.937)"><path d="m3 1037.3622h13l-3 6h-13z" fill="#d3d7cf"/><g transform="translate(.5)"><path d="m1.5 1041.3622h1l-.5 1h-1z"/><path d="m3.5 1041.3622h1l-.5 1h-1z"/><path d="m5.5 1041.3622h1l-.5 1h-1z"/><path d="m7.5 1041.3622h1l-.5 1h-1z"/><path d="m9.5 1041.3622h1l-.5 1h-1z"/><path d="m11.5 1041.3622h1l-.5 1h-1z"/></g><g transform="translate(2 -3)"><path d="m1.5 1041.3622h1l-.5 1h-1z"/><path d="m3.5 1041.3622h1l-.5 1h-1z"/><path d="m5.5 1041.3622h1l-.5 1h-1z"/><path d="m7.5 1041.3622h1l-.5 1h-1z"/><path d="m9.5 1041.3622h1l-.5 1h-1z"/><path d="m11.5 1041.3622h1l-.5 1h-1z"/></g><path d="m2.75 1039.8622h1l-.5 1h-1z"/><path d="m12.75 1039.8622h1l-.5 1h-1z"/></g></svg>

<?xml version="1.0" encoding="UTF-8" standalone="no"?>
<svg
   xmlns:dc="http://purl.org/dc/elements/1.1/"
   xmlns:cc="http://creativecommons.org/ns#"
   xmlns:rdf="http://www.w3.org/1999/02/22-rdf-syntax-ns#"
   xmlns:svg="http://www.w3.org/2000/svg"
   xmlns="http://www.w3.org/2000/svg"
   xmlns:sodipodi="http://sodipodi.sourceforge.net/DTD/sodipodi-0.dtd"
   xmlns:inkscape="http://www.inkscape.org/namespaces/inkscape"
   width="24"
   height="24"
   viewBox="0 0 24 24"
   id="svg30571"
   version="1.1"
   inkscape:version="0.91+devel r"
   sodipodi:docname="gimp-floating-selection-24.svg">
  <defs
     id="defs30573" />
  <sodipodi:namedview
     id="base"
     pagecolor="#ffffff"
     bordercolor="#666666"
     borderopacity="1"
     inkscape:pageopacity="0"
     inkscape:pageshadow="2"
     inkscape:zoom="16"
     inkscape:cx="-7.8808921"
     inkscape:cy="8.6752703"
     inkscape:document-units="px"
     inkscape:current-layer="layer1"
     showgrid="true"
     units="px"
     inkscape:snap-page="true"
     inkscape:snap-bbox="true"
     inkscape:bbox-paths="true"
     inkscape:bbox-nodes="true"
     inkscape:snap-bbox-edge-midpoints="true"
     inkscape:snap-bbox-midpoints="true"
     inkscape:object-paths="true"
     inkscape:snap-intersection-paths="true"
     inkscape:object-nodes="true"
     inkscape:snap-smooth-nodes="true"
     inkscape:snap-midpoints="true"
     inkscape:snap-object-midpoints="true"
     inkscape:snap-center="true"
     inkscape:snap-text-baseline="true"
     showborder="false"
     inkscape:window-width="1920"
     inkscape:window-height="1016"
     inkscape:window-x="0"
     inkscape:window-y="27"
     inkscape:window-maximized="1"
     inkscape:snap-global="false"
     showguides="false">
    <inkscape:grid
       type="xygrid"
       id="grid4237" />
  </sodipodi:namedview>
  <metadata
     id="metadata30576">
    <rdf:RDF>
      <cc:Work
         rdf:about="">
        <dc:format>
          image/svg+xml
        </dc:format>
        <dc:type
           rdf:resource="http://purl.org/dc/dcmitype/StillImage" />
        <dc:creator>
          <cc:Agent>
            <dc:title>Klaus Staedtler       </dc:title>
          </cc:Agent>
        </dc:creator>
        <dc:title></dc:title>
      </cc:Work>
    </rdf:RDF>
  </metadata>
  <g
     inkscape:label="Layer 1"
     inkscape:groupmode="layer"
     id="layer1"
     transform="translate(0,-1028.3622)">
    <g
       id="g4317">
      <g
         transform="matrix(1.5,0,0,1.5,0,-526.18109)"
         id="g4253">
        <rect
           style="fill:none;stroke:none"
           id="rect28186-4"
           width="16"
           height="16"
           x="2.5919439e-10"
           y="1036.3622"
           rx="0" />
        <g
           transform="translate(-41.000198,597.36219)"
           style="display:inline"
           id="gimp-layers"
           inkscape:label="gimp-layers" />
      </g>
      <g
         transform="matrix(1.5,0,0,1.5,0,-526.18109)"
         id="g4324" />
      <g
         transform="matrix(1.5,0,0,1.5,0,-526.18109)"
         id="g4288" />
      <g
         transform="matrix(1.5,0,0,1.6666667,0,-699.5748)"
         id="g4507">
        <path
           id="rect4355"
           transform="translate(0,1036.3622)"
           d="M 3,1 0,7 h 13 l 3,-6 z m 0.5,1 h 1 L 4,3 H 3 Z m 2,0 h 1 L 6,3 H 5 Z m 2,0 h 1 L 8,3 H 7 Z m 2,0 h 1 L 10,3 H 9 Z m 2,0 h 1 L 12,3 h -1 z m 2,0 h 1 L 14,3 H 13 Z M 2.75,3.5 h 1 l -0.5,1 h -1 z m 10,0 h 1 l -0.5,1 h -1 z M 2,5 H 3 L 2.5,6 h -1 z M 4,5 H 5 L 4.5,6 h -1 z M 6,5 H 7 L 6.5,6 h -1 z M 8,5 H 9 L 8.5,6 h -1 z m 2,0 h 1 l -0.5,1 h -1 z m 2,0 h 1 l -0.5,1 h -1 z"
           style="opacity:1;fill:#555753;fill-opacity:1;stroke:none;stroke-width:0.53312618;stroke-linecap:square;stroke-miterlimit:4;stroke-dasharray:none;stroke-opacity:1"
           inkscape:connector-curvature="0" />
        <g
           id="g4487">
          <g
             transform="translate(0.5)"
             id="g4406" />
          <g
             transform="translate(2,-3)"
             id="g4406-5" />
        </g>
      </g>
      <g
         transform="matrix(1.5,0,0,1.6666667,0,-687.5748)"
         id="g4507-3">
        <path
           style="opacity:1;fill:#d3d7cf;fill-opacity:1;stroke:none;stroke-width:0.53312618;stroke-linecap:square;stroke-miterlimit:4;stroke-dasharray:none;stroke-opacity:1"
           d="m 3,1037.3622 h 13 l -3,6 H 0 Z"
           id="rect4355-6"
           inkscape:connector-curvature="0"
           sodipodi:nodetypes="ccccc" />
        <g
           id="g4487-6">
          <g
             transform="translate(0.5)"
             id="g4406-1">
            <path
               style="opacity:1;fill:#000000;fill-opacity:1;stroke:none;stroke-width:0.40281022;stroke-linecap:square;stroke-miterlimit:4;stroke-dasharray:none;stroke-opacity:1"
               d="m 1.5,1041.3622 h 1 l -0.5,1 H 1 Z"
               id="rect4358-5"
               inkscape:connector-curvature="0"
               sodipodi:nodetypes="ccccc" />
            <path
               style="opacity:1;fill:#000000;fill-opacity:1;stroke:none;stroke-width:0.40281022;stroke-linecap:square;stroke-miterlimit:4;stroke-dasharray:none;stroke-opacity:1"
               d="m 3.5,1041.3622 h 1 l -0.5,1 H 3 Z"
               id="rect4358-4-68"
               inkscape:connector-curvature="0"
               sodipodi:nodetypes="ccccc" />
            <path
               style="opacity:1;fill:#000000;fill-opacity:1;stroke:none;stroke-width:0.40281022;stroke-linecap:square;stroke-miterlimit:4;stroke-dasharray:none;stroke-opacity:1"
               d="m 5.5,1041.3622 h 1 l -0.5,1 H 5 Z"
               id="rect4358-8-8"
               inkscape:connector-curvature="0"
               sodipodi:nodetypes="ccccc" />
            <path
               style="opacity:1;fill:#000000;fill-opacity:1;stroke:none;stroke-width:0.40281022;stroke-linecap:square;stroke-miterlimit:4;stroke-dasharray:none;stroke-opacity:1"
               d="m 7.5,1041.3622 h 1 l -0.5,1 H 7 Z"
               id="rect4358-3-2"
               inkscape:connector-curvature="0"
               sodipodi:nodetypes="ccccc" />
            <path
               style="opacity:1;fill:#000000;fill-opacity:1;stroke:none;stroke-width:0.40281022;stroke-linecap:square;stroke-miterlimit:4;stroke-dasharray:none;stroke-opacity:1"
               d="m 9.5,1041.3622 h 1 l -0.5,1 H 9 Z"
               id="rect4358-9-8"
               inkscape:connector-curvature="0"
               sodipodi:nodetypes="ccccc" />
            <path
               style="opacity:1;fill:#000000;fill-opacity:1;stroke:none;stroke-width:0.40281022;stroke-linecap:square;stroke-miterlimit:4;stroke-dasharray:none;stroke-opacity:1"
               d="m 11.5,1041.3622 h 1 l -0.5,1 h -1 z"
               id="rect4358-0-3"
               inkscape:connector-curvature="0"
               sodipodi:nodetypes="ccccc" />
          </g>
          <g
             transform="translate(2,-3)"
             id="g4406-5-9">
            <path
               style="opacity:1;fill:#000000;fill-opacity:1;stroke:none;stroke-width:0.40281022;stroke-linecap:square;stroke-miterlimit:4;stroke-dasharray:none;stroke-opacity:1"
               d="m 1.5,1041.3622 h 1 l -0.5,1 H 1 Z"
               id="rect4358-04-9"
               inkscape:connector-curvature="0"
               sodipodi:nodetypes="ccccc" />
            <path
               style="opacity:1;fill:#000000;fill-opacity:1;stroke:none;stroke-width:0.40281022;stroke-linecap:square;stroke-miterlimit:4;stroke-dasharray:none;stroke-opacity:1"
               d="m 3.5,1041.3622 h 1 l -0.5,1 H 3 Z"
               id="rect4358-4-6-6"
               inkscape:connector-curvature="0"
               sodipodi:nodetypes="ccccc" />
            <path
               style="opacity:1;fill:#000000;fill-opacity:1;stroke:none;stroke-width:0.40281022;stroke-linecap:square;stroke-miterlimit:4;stroke-dasharray:none;stroke-opacity:1"
               d="m 5.5,1041.3622 h 1 l -0.5,1 H 5 Z"
               id="rect4358-8-3-7"
               inkscape:connector-curvature="0"
               sodipodi:nodetypes="ccccc" />
            <path
               style="opacity:1;fill:#000000;fill-opacity:1;stroke:none;stroke-width:0.40281022;stroke-linecap:square;stroke-miterlimit:4;stroke-dasharray:none;stroke-opacity:1"
               d="m 7.5,1041.3622 h 1 l -0.5,1 H 7 Z"
               id="rect4358-3-4-8"
               inkscape:connector-curvature="0"
               sodipodi:nodetypes="ccccc" />
            <path
               style="opacity:1;fill:#000000;fill-opacity:1;stroke:none;stroke-width:0.40281022;stroke-linecap:square;stroke-miterlimit:4;stroke-dasharray:none;stroke-opacity:1"
               d="m 9.5,1041.3622 h 1 l -0.5,1 H 9 Z"
               id="rect4358-9-2-1"
               inkscape:connector-curvature="0"
               sodipodi:nodetypes="ccccc" />
            <path
               style="opacity:1;fill:#000000;fill-opacity:1;stroke:none;stroke-width:0.40281022;stroke-linecap:square;stroke-miterlimit:4;stroke-dasharray:none;stroke-opacity:1"
               d="m 11.5,1041.3622 h 1 l -0.5,1 h -1 z"
               id="rect4358-0-1-6"
               inkscape:connector-curvature="0"
               sodipodi:nodetypes="ccccc" />
          </g>
          <path
             style="opacity:1;fill:#000000;fill-opacity:1;stroke:none;stroke-width:0.40281022;stroke-linecap:square;stroke-miterlimit:4;stroke-dasharray:none;stroke-opacity:1"
             d="m 2.75,1039.8622 h 1 l -0.5,1 h -1 z"
             id="rect4358-7-3"
             inkscape:connector-curvature="0"
             sodipodi:nodetypes="ccccc" />
          <path
             style="opacity:1;fill:#000000;fill-opacity:1;stroke:none;stroke-width:0.40281022;stroke-linecap:square;stroke-miterlimit:4;stroke-dasharray:none;stroke-opacity:1"
             d="m 12.75,1039.8622 h 1 l -0.5,1 h -1 z"
             id="rect4358-7-7-2"
             inkscape:connector-curvature="0"
             sodipodi:nodetypes="ccccc" />
        </g>
      </g>
    </g>
  </g>
</svg>
